app/img/main/logo_pepsi.svg

<svg width="115" height="36" viewBox="0 0 115 36" fill="none" xmlns="http://www.w3.org/2000/svg">
<path d="M27.699 3.76784C24.8611 1.60966 21.3554 0.328247 17.4825 0.328247C14.3316 0.3297 11.2429 1.21419 8.56008 2.88328C5.87727 4.55238 3.70562 6.94061 2.2868 9.78221C0.867983 12.6238 0.257645 15.8073 0.523711 18.9784C0.789778 22.1496 1.92181 25.1839 3.79384 27.7438C9.44346 26.0736 14.5914 23.0063 18.7713 18.8198C22.9513 14.6333 26.0313 9.45982 27.7324 3.76784" fill="white"/>
<path d="M31.7055 8.48886C33.1411 13.3448 31.6721 18.4367 27.3651 21.7751C22.2235 25.5857 14.678 25.6194 4.32803 28.8567C7.08425 32.3046 11.0518 34.5448 15.4035 35.1103C19.7551 35.6758 24.1549 34.5229 27.6855 31.8919C31.216 29.261 33.6049 25.355 34.3538 20.9886C35.1027 16.6222 34.154 12.1323 31.7055 8.45514" fill="white"/>
<path d="M49.4006 12.1982C52.2719 12.1982 54.5088 14.5587 54.5088 17.5937C54.5088 20.6286 52.3721 22.9891 49.5676 22.9891C46.329 22.9217 44.3592 20.6286 44.3258 17.7285C44.3258 14.6936 46.6629 12.2319 49.434 12.2319L49.4006 12.1982ZM49.7679 25.6531C51.8379 25.6531 53.7743 24.8438 55.21 23.3938C56.687 21.861 57.5033 19.7999 57.4803 17.6611C57.4803 13.075 53.9746 9.5005 49.5342 9.5005C45.8616 9.5005 42.8567 11.9284 41.8551 15.5029C41.6186 16.7246 41.5067 17.9676 41.5213 19.2123V30.6102C41.5213 30.8125 41.6882 30.9474 41.8551 30.9474H43.8584C44.0587 30.9474 44.1922 30.7788 44.1922 30.6102V23.4275C45.6279 24.8438 47.5309 25.5857 49.2671 25.6531" fill="white"/>
<path d="M85.6769 12.1982C88.5482 12.1982 90.7851 14.5587 90.7851 17.5937C90.7851 20.6286 88.6484 22.9891 85.8438 22.9891C82.6053 22.9217 80.6355 20.6286 80.6021 17.7285C80.6021 14.6936 82.9392 12.2319 85.7103 12.2319L85.6769 12.1982ZM86.0442 25.6531C88.1142 25.6531 90.0506 24.8438 91.4863 23.3938C92.9633 21.861 93.7796 19.7999 93.7566 17.6611C93.7566 13.075 90.2509 9.5005 85.8105 9.5005C82.1379 9.5005 79.133 11.9284 78.1314 15.5029C77.8949 16.7246 77.783 17.9676 77.7975 19.2123V30.6102C77.7975 30.8125 77.9645 30.9474 78.1314 30.9474H80.1346C80.335 30.9474 80.4685 30.7788 80.4685 30.6102V23.4275C81.9042 24.8438 83.8072 25.5857 85.5434 25.6531" fill="white"/>
<path d="M67.7635 16.9192L65.7603 16.8181C64.5917 16.8181 63.5233 17.0204 62.4216 17.425V17.3239C62.6553 14.9634 64.6251 12.9401 67.029 12.6029L67.6967 12.5691C69.967 12.5691 72.1372 14.2552 72.805 16.6157C71.1356 17.1216 69.6332 17.0878 67.7301 16.9529L67.7635 16.9192ZM75.4425 16.9529C74.7748 11.9622 70.6682 9.77026 67.7635 9.87142C61.854 10.0063 59.4167 15.0983 59.9509 19.0774C60.4183 23.1577 63.757 26.024 67.7635 26.024C68.0974 26.024 68.4312 25.9903 68.7651 25.9566C70.9019 25.6868 72.7716 24.7763 74.1738 23.0228C74.3742 22.7868 74.3074 22.5507 74.107 22.4158C73.5061 22.0786 72.2708 21.4716 72.2708 21.4716C71.9369 21.2693 71.77 21.4042 71.603 21.5391C69.099 24.574 64.2579 23.6635 62.7888 19.9542V19.8867C64.2912 19.2123 65.6267 19.2797 67.2627 19.5495C68.9321 19.7856 70.3343 19.8867 71.8033 19.6507C74.2406 19.1786 75.2088 18.4704 75.2088 18.4704C75.5427 18.2344 75.5427 18.0658 75.5427 17.7285L75.4425 16.9529ZM95.4748 23.3263C97.2109 24.9449 99.1474 25.8554 101.585 25.8554H101.651C105.925 25.8217 107.828 23.4949 107.828 21.1344C107.828 17.9309 104.823 17.0878 103.922 16.8518C102.92 16.6494 101.752 16.4471 100.783 16.1773C100.283 16.0425 98.68 15.5029 98.68 14.2889C98.68 12.9401 100.149 12.2656 101.518 12.2656C102.686 12.2656 103.621 12.468 104.857 13.4459C105.124 13.6482 105.391 13.6482 105.624 13.4796L106.96 12.2656C107.194 12.0296 107.127 11.8273 106.893 11.5912C105.224 10.2424 103.655 9.73654 101.418 9.73654C98.2125 9.73654 95.8087 11.8273 95.8087 14.5587C95.8087 16.7506 97.5782 18.2681 100.817 18.9425L102.82 19.3472C104.155 19.5832 104.89 20.2914 104.823 21.303C103.721 24.5066 99.3811 23.3938 97.5448 21.5728H97.5114C97.2777 21.3705 97.1775 21.3705 96.9104 21.5391L95.3079 22.8879C95.1409 23.0903 95.2077 23.2251 95.3746 23.4275L95.4748 23.3263ZM113.504 10.5121C113.504 10.4227 113.469 10.3369 113.406 10.2737C113.343 10.2104 113.259 10.1749 113.17 10.1749H111.167C111.078 10.1749 110.993 10.2104 110.931 10.2737C110.868 10.3369 110.833 10.4227 110.833 10.5121V25.0124C110.833 25.1018 110.868 25.1876 110.931 25.2508C110.993 25.3141 111.078 25.3496 111.167 25.3496H113.17C113.259 25.3496 113.343 25.3141 113.406 25.2508C113.469 25.1876 113.504 25.1018 113.504 25.0124V10.5121Z" fill="white"/>
<path d="M112.168 8.65745C113.183 8.65745 114.005 7.82708 114.005 6.80276C114.005 5.77845 113.183 4.94808 112.168 4.94808C111.154 4.94808 110.332 5.77845 110.332 6.80276C110.332 7.82708 111.154 8.65745 112.168 8.65745Z" fill="white"/>
</svg>

<svg width="115" height="36" fill="none" xmlns="http://www.w3.org/2000/svg"><path d="M27.699 3.768A16.745 16.745 0 0017.483.328 16.91 16.91 0 008.56 2.883a17.135 17.135 0 00-6.273 6.9 17.346 17.346 0 001.507 17.96A35.317 35.317 0 0018.77 18.82a35.814 35.814 0 008.961-15.052" fill="#fff"/><path d="M31.706 8.489c1.435 4.856-.034 9.948-4.34 13.286-5.142 3.81-12.688 3.844-23.038 7.082a16.986 16.986 0 0011.075 6.253 16.901 16.901 0 0012.283-3.218 17.223 17.223 0 006.668-10.903 17.34 17.34 0 00-2.648-12.534M49.4 12.198c2.872 0 5.109 2.36 5.109 5.396 0 3.035-2.137 5.395-4.941 5.395-3.239-.067-5.209-2.36-5.242-5.26 0-3.035 2.337-5.497 5.108-5.497l-.033-.034zm.368 13.455a7.61 7.61 0 005.442-2.26 8.137 8.137 0 002.27-5.732c0-4.586-3.505-8.16-7.946-8.16-3.672 0-6.677 2.427-7.679 6.002a18.384 18.384 0 00-.334 3.71V30.61c0 .203.167.337.334.337h2.003c.2 0 .334-.168.334-.337v-7.183c1.436 1.417 3.339 2.159 5.075 2.226m36.41-13.455c2.871 0 5.108 2.36 5.108 5.396 0 3.035-2.137 5.395-4.941 5.395-3.239-.067-5.209-2.36-5.242-5.26 0-3.035 2.337-5.497 5.108-5.497l-.033-.034zm.367 13.455a7.61 7.61 0 005.442-2.26 8.137 8.137 0 002.27-5.732c0-4.586-3.505-8.16-7.945-8.16-3.673 0-6.678 2.427-7.68 6.002a18.392 18.392 0 00-.334 3.71V30.61c0 .203.168.337.334.337h2.004c.2 0 .334-.168.334-.337v-7.183c1.435 1.417 3.338 2.159 5.074 2.226m-17.78-8.733l-2.003-.102a9.438 9.438 0 00-3.338.607v-.101c.233-2.36 2.203-4.384 4.607-4.721l.668-.034c2.27 0 4.44 1.686 5.108 4.047-1.67.506-3.172.472-5.075.337l.033-.034zm7.68.033c-.668-4.99-4.775-7.183-7.68-7.082-5.909.135-8.346 5.227-7.812 9.206.467 4.08 3.806 6.947 7.812 6.947.334 0 .668-.034 1.002-.067 2.137-.27 4.007-1.18 5.409-2.934.2-.236.133-.472-.067-.607-.6-.337-1.836-.944-1.836-.944-.334-.203-.501-.068-.668.067-2.504 3.035-7.345 2.124-8.814-1.585v-.067c1.502-.675 2.838-.607 4.474-.338 1.67.237 3.071.338 4.54.102 2.438-.472 3.406-1.18 3.406-1.18.334-.237.334-.405.334-.742l-.1-.776zm20.032 6.373c1.736 1.619 3.672 2.53 6.11 2.53h.066c4.274-.034 6.177-2.361 6.177-4.722 0-3.203-3.005-4.046-3.906-4.282-1.002-.203-2.17-.405-3.139-.675-.5-.134-2.103-.674-2.103-1.888 0-1.349 1.469-2.023 2.838-2.023 1.168 0 2.103.202 3.339 1.18.267.202.534.202.767.034l1.336-1.214c.234-.236.167-.439-.067-.675-1.669-1.349-3.238-1.854-5.475-1.854-3.206 0-5.61 2.09-5.61 4.822 0 2.192 1.77 3.71 5.009 4.383l2.003.405c1.335.236 2.07.944 2.003 1.956-1.102 3.204-5.442 2.09-7.278.27h-.034c-.233-.203-.334-.203-.6-.034l-1.603 1.349c-.167.202-.1.337.067.54l.1-.102zm18.029-12.814a.337.337 0 00-.334-.337h-2.003a.337.337 0 00-.334.337v14.5a.337.337 0 00.334.338h2.003a.337.337 0 00.334-.337v-14.5zm-1.336-1.855c1.015 0 1.837-.83 1.837-1.854a1.846 1.846 0 00-1.837-1.855c-1.014 0-1.836.83-1.836 1.855 0 1.024.822 1.854 1.836 1.854z" fill="#fff"/></svg>
